svgs/thin/display.svg

<svg xmlns="http://www.w3.org/2000/svg" viewBox="0 0 576 512"><!-- Font Awesome Pro 6.0.0-alpha2 by @fontawesome - https://fontawesome.com License - https://fontawesome.com/license (Commercial License) --><path d="M64 352H512V64H64V352ZM80 80H496V336H80V80ZM528 0H48C21.5 0 0 21.5 0 48V368C0 394.5 21.5 416 48 416H228.91L202.242 496H136C131.594 496 128 499.578 128 504S131.594 512 136 512H440C444.406 512 448 508.422 448 504S444.406 496 440 496H373.785L347.117 416H528C554.5 416 576 394.5 576 368V48C576 21.5 554.5 0 528 0ZM356.91 496H219.117L245.785 416H330.242L356.91 496ZM560 368C560 385.645 545.645 400 528 400H48C30.355 400 16 385.645 16 368V48C16 30.355 30.355 16 48 16H528C545.645 16 560 30.355 560 48V368Z"/></svg>

<svg xmlns="http://www.w3.org/2000/svg" viewBox="0 0 576 512"><!--! Font Awesome Pro 6.3.0 by @fontawesome - https://fontawesome.com License - https://fontawesome.com/license (Commercial License) Copyright 2023 Fonticons, Inc. --><path d="M64 352h448V64H64V352zM80 80h416v256h-416V80zM528 0h-480C21.5 0 0 21.5 0 48v320C0 394.5 21.5 416 48 416h180.9l-26.67 80H136C131.6 496 128 499.6 128 504S131.6 512 136 512h304c4.406 0 8-3.578 8-8s-3.594-8-8-8h-66.21l-26.67-80H528c26.5 0 48-21.5 48-48v-320C576 21.5 554.5 0 528 0zM356.9 496H219.1l26.67-80h84.46L356.9 496zM560 368c0 17.64-14.36 32-32 32h-480c-17.64 0-32-14.36-32-32v-320c0-17.64 14.36-32 32-32h480c17.64 0 32 14.36 32 32V368z"/></svg>
